images/50507079.svg

<?xml version="1.0" encoding="UTF-8"?>
<svg xmlns="http://www.w3.org/2000/svg" xmlns:xlink="http://www.w3.org/1999/xlink" width="300pt" height="300pt" viewBox="0 0 300 300" version="1.1">
<defs>
<g>
<symbol overflow="visible" id="glyph0-0">
<path style="stroke:none;" d="M 0.546875 1.9375 L 0.546875 -7.75 L 6.046875 -7.75 L 6.046875 1.9375 Z M 1.171875 1.328125 L 5.4375 1.328125 L 5.4375 -7.140625 L 1.171875 -7.140625 Z M 1.171875 1.328125 "/>
</symbol>
<symbol overflow="visible" id="glyph0-1">
<path style="stroke:none;" d="M 1.078125 -8.015625 L 2.546875 -8.015625 L 6.09375 -1.3125 L 6.09375 -8.015625 L 7.15625 -8.015625 L 7.15625 0 L 5.6875 0 L 2.125 -6.703125 L 2.125 0 L 1.078125 0 Z M 1.078125 -8.015625 "/>
</symbol>
<symbol overflow="visible" id="glyph0-2">
<path style="stroke:none;" d="M 1.078125 -8.015625 L 2.171875 -8.015625 L 2.171875 -4.734375 L 6.109375 -4.734375 L 6.109375 -8.015625 L 7.1875 -8.015625 L 7.1875 0 L 6.109375 0 L 6.109375 -3.8125 L 2.171875 -3.8125 L 2.171875 0 L 1.078125 0 Z M 1.078125 -8.015625 "/>
</symbol>
<symbol overflow="visible" id="glyph1-0">
<path style="stroke:none;" d="M 0.453125 1.59375 L 0.453125 -6.34375 L 4.953125 -6.34375 L 4.953125 1.59375 Z M 0.953125 1.09375 L 4.453125 1.09375 L 4.453125 -5.84375 L 0.953125 -5.84375 Z M 0.953125 1.09375 "/>
</symbol>
<symbol overflow="visible" id="glyph1-1">
<path style="stroke:none;" d="M 4.140625 -5.640625 L 4.140625 -3.1875 L 6.59375 -3.1875 L 6.59375 -2.453125 L 4.140625 -2.453125 L 4.140625 0 L 3.40625 0 L 3.40625 -2.453125 L 0.953125 -2.453125 L 0.953125 -3.1875 L 3.40625 -3.1875 L 3.40625 -5.640625 Z M 4.140625 -5.640625 "/>
</symbol>
</g>
</defs>
<g id="surface20705">
<rect x="0" y="0" width="300" height="300" style="fill:rgb(100%,100%,100%);fill-opacity:1;stroke:none;"/>
<path style="fill:none;stroke-width:1.2;stroke-linecap:butt;stroke-linejoin:miter;stroke:rgb(0%,0%,100%);stroke-opacity:1;stroke-miterlimit:10;" d="M 222.429688 218.730469 L 209.0625 217.457031 "/>
<path style="fill:none;stroke-width:1.2;stroke-linecap:butt;stroke-linejoin:miter;stroke:rgb(0%,0%,0%);stroke-opacity:1;stroke-miterlimit:10;" d="M 209.0625 217.457031 L 195.691406 216.179688 "/>
<path style="fill:none;stroke-width:1.2;stroke-linecap:butt;stroke-linejoin:miter;stroke:rgb(0%,0%,100%);stroke-opacity:1;stroke-miterlimit:10;" d="M 220.359375 212.183594 L 209.660156 211.164062 "/>
<path style="fill:none;stroke-width:1.2;stroke-linecap:butt;stroke-linejoin:miter;stroke:rgb(0%,0%,0%);stroke-opacity:1;stroke-miterlimit:10;" d="M 209.660156 211.164062 L 198.964844 210.144531 "/>
<path style="fill:none;stroke-width:1.2;stroke-linecap:butt;stroke-linejoin:miter;stroke:rgb(0%,0%,0%);stroke-opacity:1;stroke-miterlimit:10;" d="M 238.011719 196.847656 L 230.21875 207.789062 "/>
<path style="fill:none;stroke-width:1.2;stroke-linecap:butt;stroke-linejoin:miter;stroke:rgb(0%,0%,100%);stroke-opacity:1;stroke-miterlimit:10;" d="M 230.21875 207.789062 L 222.429688 218.730469 "/>
<path style=" stroke:none;fill-rule:nonzero;fill:rgb(100%,100%,100%);fill-opacity:1;" d="M 210.429688 210.730469 L 234.429688 210.730469 L 234.429688 226.730469 L 210.429688 226.730469 Z M 210.429688 210.730469 "/>
<g style="fill:rgb(0%,0%,100%);fill-opacity:1;">
  <use xlink:href="#glyph0-1" x="210.429688" y="223.863281"/>
  <use xlink:href="#glyph0-2" x="218.413086" y="223.863281"/>
</g>
<g style="fill:rgb(0%,0%,100%);fill-opacity:1;">
  <use xlink:href="#glyph1-1" x="226.4375" y="218.980469"/>
</g>
<path style="fill:none;stroke-width:1.2;stroke-linecap:butt;stroke-linejoin:miter;stroke:rgb(0%,0%,0%);stroke-opacity:1;stroke-miterlimit:10;" d="M 195.691406 216.179688 L 184.53125 191.75 "/>
<path style="fill:none;stroke-width:1.2;stroke-linecap:butt;stroke-linejoin:miter;stroke:rgb(0%,0%,0%);stroke-opacity:1;stroke-miterlimit:10;" d="M 184.53125 191.75 L 200.109375 169.867188 "/>
<path style="fill:none;stroke-width:1.2;stroke-linecap:butt;stroke-linejoin:miter;stroke:rgb(0%,0%,0%);stroke-opacity:1;stroke-miterlimit:10;" d="M 191.234375 193.226562 L 203.699219 175.71875 "/>
<path style="fill:none;stroke-width:1.2;stroke-linecap:butt;stroke-linejoin:miter;stroke:rgb(0%,0%,0%);stroke-opacity:1;stroke-miterlimit:10;" d="M 200.109375 169.867188 L 194.527344 157.648438 "/>
<path style="fill:none;stroke-width:1.2;stroke-linecap:butt;stroke-linejoin:miter;stroke:rgb(0%,0%,100%);stroke-opacity:1;stroke-miterlimit:10;" d="M 194.527344 157.648438 L 188.945312 145.433594 "/>
<path style="fill:none;stroke-width:1.2;stroke-linecap:butt;stroke-linejoin:miter;stroke:rgb(0%,0%,0%);stroke-opacity:1;stroke-miterlimit:10;" d="M 200.109375 169.867188 L 226.847656 172.414062 "/>
<path style="fill:none;stroke-width:1.2;stroke-linecap:butt;stroke-linejoin:miter;stroke:rgb(0%,0%,100%);stroke-opacity:1;stroke-miterlimit:10;" d="M 188.945312 145.433594 L 175.574219 144.15625 "/>
<path style="fill:none;stroke-width:1.2;stroke-linecap:butt;stroke-linejoin:miter;stroke:rgb(0%,0%,0%);stroke-opacity:1;stroke-miterlimit:10;" d="M 175.574219 144.15625 L 162.207031 142.882812 "/>
<path style=" stroke:none;fill-rule:nonzero;fill:rgb(100%,100%,100%);fill-opacity:1;" d="M 180.945312 138.933594 L 197.945312 138.933594 L 197.945312 151.933594 L 180.945312 151.933594 Z M 180.945312 138.933594 "/>
<g style="fill:rgb(0%,0%,100%);fill-opacity:1;">
  <use xlink:href="#glyph0-1" x="180.945312" y="148.834961"/>
  <use xlink:href="#glyph0-2" x="188.928711" y="148.834961"/>
</g>
<path style="fill:none;stroke-width:1.2;stroke-linecap:butt;stroke-linejoin:miter;stroke:rgb(0%,0%,0%);stroke-opacity:1;stroke-miterlimit:10;" d="M 162.207031 142.882812 L 154.417969 153.824219 "/>
<path style="fill:none;stroke-width:1.2;stroke-linecap:butt;stroke-linejoin:miter;stroke:rgb(0%,0%,100%);stroke-opacity:1;stroke-miterlimit:10;" d="M 154.417969 153.824219 L 146.628906 164.765625 "/>
<path style="fill:none;stroke-width:1.2;stroke-linecap:butt;stroke-linejoin:miter;stroke:rgb(0%,0%,0%);stroke-opacity:1;stroke-miterlimit:10;" d="M 155.5 141.40625 L 149.265625 150.160156 "/>
<path style="fill:none;stroke-width:1.2;stroke-linecap:butt;stroke-linejoin:miter;stroke:rgb(0%,0%,100%);stroke-opacity:1;stroke-miterlimit:10;" d="M 149.265625 150.160156 L 143.035156 158.914062 "/>
<path style="fill:none;stroke-width:1.2;stroke-linecap:butt;stroke-linejoin:miter;stroke:rgb(0%,0%,0%);stroke-opacity:1;stroke-miterlimit:10;" d="M 151.042969 118.449219 L 162.207031 142.882812 "/>
<path style="fill:none;stroke-width:1.2;stroke-linecap:butt;stroke-linejoin:miter;stroke:rgb(0%,0%,100%);stroke-opacity:1;stroke-miterlimit:10;" d="M 146.628906 164.765625 L 133.257812 163.492188 "/>
<path style="fill:none;stroke-width:1.2;stroke-linecap:butt;stroke-linejoin:miter;stroke:rgb(0%,0%,0%);stroke-opacity:1;stroke-miterlimit:10;" d="M 133.257812 163.492188 L 119.886719 162.214844 "/>
<path style=" stroke:none;fill-rule:nonzero;fill:rgb(100%,100%,100%);fill-opacity:1;" d="M 142.628906 158.265625 L 150.628906 158.265625 L 150.628906 171.265625 L 142.628906 171.265625 Z M 142.628906 158.265625 "/>
<g style="fill:rgb(0%,0%,100%);fill-opacity:1;">
  <use xlink:href="#glyph0-1" x="142.628906" y="168.166992"/>
</g>
<path style="fill:none;stroke-width:1.2;stroke-linecap:butt;stroke-linejoin:miter;stroke:rgb(0%,0%,0%);stroke-opacity:1;stroke-miterlimit:10;" d="M 119.886719 162.214844 L 114.304688 150 "/>
<path style="fill:none;stroke-width:1.2;stroke-linecap:butt;stroke-linejoin:miter;stroke:rgb(0%,0%,100%);stroke-opacity:1;stroke-miterlimit:10;" d="M 114.304688 150 L 108.726562 137.785156 "/>
<path style="fill:none;stroke-width:1.2;stroke-linecap:butt;stroke-linejoin:miter;stroke:rgb(0%,0%,0%);stroke-opacity:1;stroke-miterlimit:10;" d="M 124.519531 157.148438 L 120.054688 147.375 "/>
<path style="fill:none;stroke-width:1.2;stroke-linecap:butt;stroke-linejoin:miter;stroke:rgb(0%,0%,100%);stroke-opacity:1;stroke-miterlimit:10;" d="M 120.054688 147.375 L 115.589844 137.601562 "/>
<path style="fill:none;stroke-width:1.2;stroke-linecap:butt;stroke-linejoin:miter;stroke:rgb(0%,0%,0%);stroke-opacity:1;stroke-miterlimit:10;" d="M 119.886719 162.214844 L 104.308594 184.097656 "/>
<path style="fill:none;stroke-width:1.2;stroke-linecap:butt;stroke-linejoin:miter;stroke:rgb(0%,0%,100%);stroke-opacity:1;stroke-miterlimit:10;" d="M 108.726562 137.785156 L 116.515625 126.84375 "/>
<path style="fill:none;stroke-width:1.2;stroke-linecap:butt;stroke-linejoin:miter;stroke:rgb(0%,0%,0%);stroke-opacity:1;stroke-miterlimit:10;" d="M 116.515625 126.84375 L 124.304688 115.902344 "/>
<path style=" stroke:none;fill-rule:nonzero;fill:rgb(100%,100%,100%);fill-opacity:1;" d="M 104.726562 131.285156 L 112.726562 131.285156 L 112.726562 144.285156 L 104.726562 144.285156 Z M 104.726562 131.285156 "/>
<g style="fill:rgb(0%,0%,100%);fill-opacity:1;">
  <use xlink:href="#glyph0-1" x="104.726562" y="141.186523"/>
</g>
<path style="fill:none;stroke-width:1.2;stroke-linecap:butt;stroke-linejoin:miter;stroke:rgb(0%,0%,0%);stroke-opacity:1;stroke-miterlimit:10;" d="M 124.304688 115.902344 L 151.042969 118.449219 "/>
<path style="fill:none;stroke-width:1.2;stroke-linecap:butt;stroke-linejoin:miter;stroke:rgb(0%,0%,0%);stroke-opacity:1;stroke-miterlimit:10;" d="M 127.578125 109.863281 L 148.96875 111.902344 "/>
<path style="fill:none;stroke-width:1.2;stroke-linecap:butt;stroke-linejoin:miter;stroke:rgb(0%,0%,0%);stroke-opacity:1;stroke-miterlimit:10;" d="M 113.140625 91.46875 L 124.304688 115.902344 "/>
<path style="fill:none;stroke-width:1.2;stroke-linecap:butt;stroke-linejoin:miter;stroke:rgb(0%,0%,0%);stroke-opacity:1;stroke-miterlimit:10;" d="M 151.042969 118.449219 L 166.621094 96.566406 "/>
<path style="fill:none;stroke-width:1.2;stroke-linecap:butt;stroke-linejoin:miter;stroke:rgb(0%,0%,0%);stroke-opacity:1;stroke-miterlimit:10;" d="M 166.621094 96.566406 L 155.460938 72.136719 "/>
<path style="fill:none;stroke-width:1.2;stroke-linecap:butt;stroke-linejoin:miter;stroke:rgb(0%,0%,0%);stroke-opacity:1;stroke-miterlimit:10;" d="M 159.757812 96.75 L 150.828125 77.203125 "/>
<path style="fill:none;stroke-width:1.2;stroke-linecap:butt;stroke-linejoin:miter;stroke:rgb(0%,0%,0%);stroke-opacity:1;stroke-miterlimit:10;" d="M 155.460938 72.136719 L 128.71875 69.585938 "/>
<path style="fill:none;stroke-width:1.2;stroke-linecap:butt;stroke-linejoin:miter;stroke:rgb(0%,0%,0%);stroke-opacity:1;stroke-miterlimit:10;" d="M 128.71875 69.585938 L 113.140625 91.46875 "/>
<path style="fill:none;stroke-width:1.2;stroke-linecap:butt;stroke-linejoin:miter;stroke:rgb(0%,0%,0%);stroke-opacity:1;stroke-miterlimit:10;" d="M 132.308594 75.4375 L 119.847656 92.945312 "/>
<path style="fill:none;stroke-width:1.2;stroke-linecap:butt;stroke-linejoin:miter;stroke:rgb(0%,0%,0%);stroke-opacity:1;stroke-miterlimit:10;" d="M 104.308594 184.097656 L 90.9375 182.824219 "/>
<path style="fill:none;stroke-width:1.2;stroke-linecap:butt;stroke-linejoin:miter;stroke:rgb(0%,0%,100%);stroke-opacity:1;stroke-miterlimit:10;" d="M 90.9375 182.824219 L 77.570312 181.550781 "/>
<path style="fill:none;stroke-width:1.2;stroke-linecap:butt;stroke-linejoin:miter;stroke:rgb(0%,0%,0%);stroke-opacity:1;stroke-miterlimit:10;" d="M 101.035156 190.136719 L 90.339844 189.117188 "/>
<path style="fill:none;stroke-width:1.2;stroke-linecap:butt;stroke-linejoin:miter;stroke:rgb(0%,0%,100%);stroke-opacity:1;stroke-miterlimit:10;" d="M 90.339844 189.117188 L 79.640625 188.097656 "/>
<path style="fill:none;stroke-width:1.2;stroke-linecap:butt;stroke-linejoin:miter;stroke:rgb(0%,0%,0%);stroke-opacity:1;stroke-miterlimit:10;" d="M 115.46875 208.53125 L 104.308594 184.097656 "/>
<path style="fill:none;stroke-width:1.2;stroke-linecap:butt;stroke-linejoin:miter;stroke:rgb(0%,0%,100%);stroke-opacity:1;stroke-miterlimit:10;" d="M 77.570312 181.550781 L 69.78125 192.492188 "/>
<path style="fill:none;stroke-width:1.2;stroke-linecap:butt;stroke-linejoin:miter;stroke:rgb(0%,0%,0%);stroke-opacity:1;stroke-miterlimit:10;" d="M 69.78125 192.492188 L 61.988281 203.433594 "/>
<path style=" stroke:none;fill-rule:nonzero;fill:rgb(100%,100%,100%);fill-opacity:1;" d="M 73.570312 175.050781 L 81.570312 175.050781 L 81.570312 188.050781 L 73.570312 188.050781 Z M 73.570312 175.050781 "/>
<g style="fill:rgb(0%,0%,100%);fill-opacity:1;">
  <use xlink:href="#glyph0-1" x="73.570312" y="184.952148"/>
</g>
<path style="fill:none;stroke-width:1.2;stroke-linecap:butt;stroke-linejoin:miter;stroke:rgb(0%,0%,0%);stroke-opacity:1;stroke-miterlimit:10;" d="M 61.988281 203.433594 L 73.152344 227.863281 "/>
<path style="fill:none;stroke-width:1.2;stroke-linecap:butt;stroke-linejoin:miter;stroke:rgb(0%,0%,0%);stroke-opacity:1;stroke-miterlimit:10;" d="M 68.855469 203.25 L 77.785156 222.796875 "/>
<path style="fill:none;stroke-width:1.2;stroke-linecap:butt;stroke-linejoin:miter;stroke:rgb(0%,0%,0%);stroke-opacity:1;stroke-miterlimit:10;" d="M 61.988281 203.433594 L 35.25 200.882812 "/>
<path style="fill:none;stroke-width:1.2;stroke-linecap:butt;stroke-linejoin:miter;stroke:rgb(0%,0%,0%);stroke-opacity:1;stroke-miterlimit:10;" d="M 73.152344 227.863281 L 99.890625 230.414062 "/>
<path style="fill:none;stroke-width:1.2;stroke-linecap:butt;stroke-linejoin:miter;stroke:rgb(0%,0%,0%);stroke-opacity:1;stroke-miterlimit:10;" d="M 99.890625 230.414062 L 115.46875 208.53125 "/>
<path style="fill:none;stroke-width:1.2;stroke-linecap:butt;stroke-linejoin:miter;stroke:rgb(0%,0%,0%);stroke-opacity:1;stroke-miterlimit:10;" d="M 96.300781 224.5625 L 108.765625 207.054688 "/>
<path style="fill:none;stroke-width:1.2;stroke-linecap:butt;stroke-linejoin:miter;stroke:rgb(0%,0%,0%);stroke-opacity:1;stroke-miterlimit:10;" d="M 226.847656 172.414062 L 238.011719 196.847656 "/>
<path style="fill:none;stroke-width:1.2;stroke-linecap:butt;stroke-linejoin:miter;stroke:rgb(0%,0%,0%);stroke-opacity:1;stroke-miterlimit:10;" d="M 222.214844 177.484375 L 231.144531 197.03125 "/>
<path style="fill:none;stroke-width:1.2;stroke-linecap:butt;stroke-linejoin:miter;stroke:rgb(0%,0%,0%);stroke-opacity:1;stroke-miterlimit:10;" d="M 238.011719 196.847656 L 264.75 199.398438 "/>
</g>
</svg>

<svg xmlns="http://www.w3.org/2000/svg" xmlns:xlink="http://www.w3.org/1999/xlink" width="300pt" height="300pt" viewBox="0 0 300 300"><defs><symbol overflow="visible"><path d="M.547 1.938V-7.75h5.5v9.688zm.625-.61h4.266v-8.47H1.171zm0 0"/></symbol><symbol overflow="visible" id="a"><path d="M1.078-8.016h1.47l3.546 6.704v-6.704h1.062V0H5.688L2.124-6.703V0H1.078zm0 0"/></symbol><symbol overflow="visible" id="b"><path d="M1.078-8.016h1.094v3.282H6.11v-3.282h1.077V0H6.11v-3.813H2.17V0H1.078zm0 0"/></symbol><symbol overflow="visible"><path d="M.453 1.594v-7.938h4.5v7.938zm.5-.5h3.5v-6.938h-3.5zm0 0"/></symbol><symbol overflow="visible" id="c"><path d="M4.14-5.64v2.452h2.454v.735H4.14V0h-.734v-2.453H.953v-.735h2.453V-5.64zm0 0"/></symbol></defs><g><path fill="#fff" d="M0 0h300v300H0z"/><path d="M222.43 218.73l-13.368-1.273" stroke-width="1.2" stroke="#00f" stroke-miterlimit="10" fill="none"/><path d="M209.063 217.457l-13.372-1.277" stroke-width="1.2" stroke="#000" stroke-miterlimit="10" fill="none"/><path d="M220.36 212.184l-10.7-1.02" stroke-width="1.2" stroke="#00f" stroke-miterlimit="10" fill="none"/><path d="M209.66 211.164l-10.695-1.02M238.012 196.848l-7.793 10.94" stroke-width="1.2" stroke="#000" stroke-miterlimit="10" fill="none"/><path d="M230.22 207.79l-7.79 10.94" stroke-width="1.2" stroke="#00f" stroke-miterlimit="10" fill="none"/><path d="M210.43 210.73h24v16h-24zm0 0" fill="#fff"/><g fill="#00f"><use xlink:href="#a" x="210.43" y="223.863"/><use xlink:href="#b" x="218.413" y="223.863"/></g><use xlink:href="#c" x="226.438" y="218.98" fill="#00f"/><path d="M195.69 216.18l-11.16-24.43M184.53 191.75l15.58-21.883M191.234 193.227L203.7 175.72M200.11 169.867l-5.583-12.22" stroke-width="1.2" stroke="#000" stroke-miterlimit="10" fill="none"/><path d="M194.527 157.648l-5.582-12.214" stroke-width="1.2" stroke="#00f" stroke-miterlimit="10" fill="none"/><path d="M200.11 169.867l26.738 2.547" stroke-width="1.2" stroke="#000" stroke-miterlimit="10" fill="none"/><path d="M188.945 145.434l-13.37-1.278" stroke-width="1.2" stroke="#00f" stroke-miterlimit="10" fill="none"/><path d="M175.574 144.156l-13.367-1.273" stroke-width="1.2" stroke="#000" stroke-miterlimit="10" fill="none"/><path d="M180.945 138.934h17v13h-17zm0 0" fill="#fff"/><g fill="#00f"><use xlink:href="#a" x="180.945" y="148.835"/><use xlink:href="#b" x="188.929" y="148.835"/></g><path d="M162.207 142.883l-7.79 10.94" stroke-width="1.2" stroke="#000" stroke-miterlimit="10" fill="none"/><path d="M154.418 153.824l-7.79 10.942" stroke-width="1.2" stroke="#00f" stroke-miterlimit="10" fill="none"/><path d="M155.5 141.406l-6.234 8.754" stroke-width="1.2" stroke="#000" stroke-miterlimit="10" fill="none"/><path d="M149.266 150.16l-6.23 8.754" stroke-width="1.2" stroke="#00f" stroke-miterlimit="10" fill="none"/><path d="M151.043 118.45l11.164 24.433" stroke-width="1.2" stroke="#000" stroke-miterlimit="10" fill="none"/><path d="M146.63 164.766l-13.372-1.274" stroke-width="1.2" stroke="#00f" stroke-miterlimit="10" fill="none"/><path d="M133.258 163.492l-13.37-1.277" stroke-width="1.2" stroke="#000" stroke-miterlimit="10" fill="none"/><path d="M142.63 158.266h8v13h-8zm0 0" fill="#fff"/><use xlink:href="#a" x="142.629" y="168.167" fill="#00f"/><path d="M119.887 162.215L114.305 150" stroke-width="1.2" stroke="#000" stroke-miterlimit="10" fill="none"/><path d="M114.305 150l-5.578-12.215" stroke-width="1.2" stroke="#00f" stroke-miterlimit="10" fill="none"/><path d="M124.52 157.148l-4.465-9.773" stroke-width="1.2" stroke="#000" stroke-miterlimit="10" fill="none"/><path d="M120.055 147.375l-4.465-9.773" stroke-width="1.2" stroke="#00f" stroke-miterlimit="10" fill="none"/><path d="M119.887 162.215l-15.578 21.883" stroke-width="1.2" stroke="#000" stroke-miterlimit="10" fill="none"/><path d="M108.727 137.785l7.79-10.94" stroke-width="1.2" stroke="#00f" stroke-miterlimit="10" fill="none"/><path d="M116.516 126.844l7.79-10.942" stroke-width="1.2" stroke="#000" stroke-miterlimit="10" fill="none"/><path d="M104.727 131.285h8v13h-8zm0 0" fill="#fff"/><use xlink:href="#a" x="104.727" y="141.187" fill="#00f"/><path d="M124.305 115.902l26.738 2.547M127.578 109.863l21.39 2.04M113.14 91.47l11.165 24.432M151.043 118.45l15.578-21.884M166.62 96.566l-11.16-24.43M159.758 96.75l-8.93-19.547M155.46 72.137l-26.74-2.55M128.72 69.586L113.14 91.47M132.31 75.438l-12.462 17.507M104.31 184.098l-13.373-1.274" stroke-width="1.2" stroke="#000" stroke-miterlimit="10" fill="none"/><path d="M90.938 182.824L77.57 181.55" stroke-width="1.2" stroke="#00f" stroke-miterlimit="10" fill="none"/><path d="M101.035 190.137l-10.695-1.02" stroke-width="1.2" stroke="#000" stroke-miterlimit="10" fill="none"/><path d="M90.34 189.117l-10.7-1.02" stroke-width="1.2" stroke="#00f" stroke-miterlimit="10" fill="none"/><path d="M115.47 208.53L104.31 184.1" stroke-width="1.2" stroke="#000" stroke-miterlimit="10" fill="none"/><path d="M77.57 181.55l-7.79 10.942" stroke-width="1.2" stroke="#00f" stroke-miterlimit="10" fill="none"/><path d="M69.78 192.492l-7.792 10.942" stroke-width="1.2" stroke="#000" stroke-miterlimit="10" fill="none"/><path d="M73.57 175.05h8v13h-8zm0 0" fill="#fff"/><use xlink:href="#a" x="73.57" y="184.952" fill="#00f"/><path d="M61.988 203.434l11.164 24.43M68.855 203.25l8.93 19.547M61.988 203.434l-26.738-2.55M73.152 227.863l26.74 2.55M99.89 230.414l15.58-21.883M96.3 224.563l12.466-17.508M226.848 172.414l11.164 24.434M222.215 177.484l8.93 19.547M238.012 196.848l26.738 2.55" stroke-width="1.2" stroke="#000" stroke-miterlimit="10" fill="none"/></g></svg>
